icons/barn.svg

<svg width="14" height="14" viewBox="0 0 14 14" fill="none" xmlns="http://www.w3.org/2000/svg">
<path d="M3 5.5V10.5C3 11.0523 3.44771 11.5 4 11.5V11.5C4.55228 11.5 5 11.0523 5 10.5V8C5 7.44772 5.44771 7 6 7H7H8C8.55228 7 9 7.44772 9 8V10.5C9 11.0523 9.44771 11.5 10 11.5V11.5C10.5523 11.5 11 11.0523 11 10.5V5.5M3 5.5L4.73333 4.2C4.90642 4.07018 5.11696 4 5.33333 4H8.66666C8.88303 4 9.09357 4.07018 9.26666 4.2L11 5.5M3 5.5L1.99997 6.24761M11 5.5L11.9976 6.24761" stroke="red" stroke-linecap="round" stroke-linejoin="round"/>
</svg>

<svg xmlns="http://www.w3.org/2000/svg" width="14" height="14" fill="none" viewBox="0 0 14 14"><path stroke="red" stroke-linecap="round" stroke-linejoin="round" d="M3 5.5v5a1 1 0 0 0 1 1v0a1 1 0 0 0 1-1V8a1 1 0 0 1 1-1h2a1 1 0 0 1 1 1v2.5a1 1 0 0 0 1 1v0a1 1 0 0 0 1-1v-5m-8 0 1.733-1.3a1 1 0 0 1 .6-.2h3.334a1 1 0 0 1 .6.2L11 5.5m-8 0-1 .748m9-.748.998.748"/></svg>
